X: 305772
M: 6/8
L: 1/8
K: G
g2d B2G | GBd g3 | gfe dcB | Adc BAG |\
g2d B2G | GBd g3 | gfe dcB | dcA G2 H|]


